src/assets/filled/Html5.svg

<svg width="24" height="24" viewBox="0 0 24 24"  xmlns="http://www.w3.org/2000/svg">
<path d="M19.8799 2H4.10983C3.50983 2 3.04984 2.52 3.11984 3.11L4.91983 19.33C4.95983 19.73 5.24986 20.07 5.63986 20.18L11.7198 21.92C11.8998 21.97 12.0899 21.97 12.2699 21.92L18.3498 20.18C18.7398 20.07 19.0199 19.73 19.0699 19.33L20.8698 3.11C20.9398 2.52 20.4799 2 19.8799 2ZM16.2498 7.5H8.58988L8.91983 10.5H15.7498C15.9598 10.5 16.1598 10.59 16.3098 10.75C16.4498 10.91 16.5198 11.12 16.4998 11.33L15.9998 16.33C15.9698 16.64 15.7599 16.89 15.4599 16.98L11.9599 17.98C11.8899 18 11.8198 18.01 11.7498 18.01C11.6798 18.01 11.6098 18 11.5398 17.98L8.03983 16.98C7.71983 16.89 7.49985 16.59 7.49985 16.26V14.26C7.49985 13.85 7.83985 13.51 8.24985 13.51C8.65985 13.51 8.99985 13.85 8.99985 14.26V15.69L11.7498 16.48L14.5498 15.68L14.9198 12.01H8.24985C7.86985 12.01 7.54985 11.72 7.49985 11.34L6.99985 6.84C6.97985 6.63 7.03985 6.41999 7.18985 6.25999C7.32985 6.09999 7.53985 6.00999 7.74985 6.00999H16.2498C16.6598 6.00999 16.9998 6.34999 16.9998 6.75999C16.9998 7.16999 16.6598 7.5 16.2498 7.5Z" />
</svg>

<?xml version="1.0" encoding="UTF-8"?>
<svg width="24" height="24" viewBox="0 0 24 24" xmlns="http://www.w3.org/2000/svg">
 <path d="m19.88 2h-15.77c-0.6 0-1.06 0.52-0.98999 1.11l1.8 16.22c0.04 0.4 0.33003 0.74 0.72003 0.85l6.0799 1.74c0.18 0.05 0.3701 0.05 0.5501 0l6.0799-1.74c0.39-0.11 0.6701-0.45 0.7201-0.85l1.7999-16.22c0.07-0.59-0.3899-1.11-0.9899-1.11zm-3.6301 5.5h-7.6599l0.32995 3h6.83c0.21 0 0.41 0.09 0.56 0.25 0.14 0.16 0.21 0.37 0.19 0.58l-0.5 5c-0.03 0.31-0.2399 0.56-0.5399 0.65l-3.5 1c-0.07 0.02-0.1401 0.03-0.2101 0.03s-0.14-0.01-0.21-0.03l-3.5-1c-0.32-0.09-0.53998-0.39-0.53998-0.72v-2c0-0.41 0.34-0.75 0.75-0.75s0.75 0.34 0.75 0.75v1.43l2.75 0.79 2.8-0.8 0.37-3.67h-6.67c-0.38 0-0.7-0.29-0.75-0.67l-0.5-4.5c-0.02-0.21 0.04-0.42001 0.19-0.58001 0.14-0.16 0.35-0.25 0.56-0.25h8.5c0.41 0 0.75 0.34 0.75 0.75s-0.34 0.74001-0.75 0.74001z"/>
</svg>
